packages/icons/src/delegates-blue.svg

<svg fill="none" viewBox="0 0 64 64" xmlns="http://www.w3.org/2000/svg"><path clip-rule="evenodd" d="m35.3593 7.51136c-1.8745-1.87452-4.9137-1.87452-6.7882 0l-5.6568 5.65684c-1.8745 1.8745-1.8745 4.9137 0 6.7882l5.6568 5.6569c1.8745 1.8745 4.9137 1.8745 6.7882 0l5.6568-5.6569c1.8745-1.8745 1.8745-4.9137 0-6.7882zm-4.5255 2.26274c.6248-.62484 1.6379-.62484 2.2627 0l5.6568 5.6569c.6249.6248.6249 1.6379 0 2.2627l-5.6568 5.6568c-.6248.6249-1.6379.6249-2.2627 0l-5.6568-5.6568c-.6248-.6248-.6248-1.6379 0-2.2627zm-19.8258 20.3014c.3001-.3001.707-.4687 1.1314-.4687h40.4606c.8836 0 1.6.7164 1.6 1.6v8.9712h-3.2v-7.3712h-17.0303v7.3712h-3.2v-7.3712h-17.0303v7.3712h-3.2v-8.9712c0-.4243.1686-.8313.4686-1.1313zm21.6318 17.5126c-1.0165 0-1.8405.824-1.8405 1.8406 0 1.0165.824 1.8406 1.8405 1.8406 1.0166 0 1.8406-.8241 1.8406-1.8406 0-1.0166-.824-1.8406-1.8406-1.8406zm-5.0405 1.8406c0-2.7839 2.2567-5.0406 5.0405-5.0406 2.7839 0 5.0406 2.2567 5.0406 5.0406 0 2.7838-2.2567 5.0406-5.0406 5.0406-2.7838 0-5.0405-2.2568-5.0405-5.0406zm23.1609 0c0-1.0166.8241-1.8406 1.8406-1.8406s1.8406.824 1.8406 1.8406c0 1.0165-.8241 1.8406-1.8406 1.8406s-1.8406-.8241-1.8406-1.8406zm1.8406-5.0406c-2.7838 0-5.0406 2.2567-5.0406 5.0406 0 2.7838 2.2568 5.0406 5.0406 5.0406s5.0405-2.2568 5.0405-5.0406c0-2.7839-2.2567-5.0406-5.0405-5.0406zm-40.7682 3.2c-1.0166 0-1.84063.824-1.84063 1.8406 0 1.0165.82403 1.8406 1.84063 1.8406 1.0165 0 1.8405-.8241 1.8405-1.8406 0-1.0166-.824-1.8406-1.8405-1.8406zm-5.04061 1.8406c0-2.7839 2.25674-5.0406 5.04061-5.0406 2.7838 0 5.0405 2.2567 5.0405 5.0406 0 2.7838-2.2567 5.0406-5.0405 5.0406-2.78387 0-5.04061-2.2568-5.04061-5.0406z" fill="#0278d5" fill-rule="evenodd"/></svg>

<svg viewBox="0 0 64 64" fill="none" xmlns="http://www.w3.org/2000/svg">
<path fill-rule="evenodd" clip-rule="evenodd" d="M35.3593 7.51136C33.4848 5.63684 30.4456 5.63684 28.5711 7.51136L22.9143 13.1682C21.0398 15.0427 21.0398 18.0819 22.9143 19.9564L28.5711 25.6133C30.4456 27.4878 33.4848 27.4878 35.3593 25.6133L41.0161 19.9564C42.8906 18.0819 42.8906 15.0427 41.0161 13.1682L35.3593 7.51136ZM30.8338 9.7741C31.4586 9.14926 32.4717 9.14926 33.0965 9.7741L38.7533 15.431C39.3782 16.0558 39.3782 17.0689 38.7533 17.6937L33.0965 23.3505C32.4717 23.9754 31.4586 23.9754 30.8338 23.3505L25.177 17.6937C24.5522 17.0689 24.5522 16.0558 25.177 15.431L30.8338 9.7741ZM11.008 30.0755C11.3081 29.7754 11.715 29.6068 12.1394 29.6068H52.6C53.4836 29.6068 54.2 30.3232 54.2 31.2068V40.178H51V32.8068H33.9697V40.178H30.7697V32.8068H13.7394V40.178H10.5394V31.2068C10.5394 30.7825 10.708 30.3755 11.008 30.0755ZM32.6398 47.5881C31.6233 47.5881 30.7993 48.4121 30.7993 49.4287C30.7993 50.4452 31.6233 51.2693 32.6398 51.2693C33.6564 51.2693 34.4804 50.4452 34.4804 49.4287C34.4804 48.4121 33.6564 47.5881 32.6398 47.5881ZM27.5993 49.4287C27.5993 46.6448 29.856 44.3881 32.6398 44.3881C35.4237 44.3881 37.6804 46.6448 37.6804 49.4287C37.6804 52.2125 35.4237 54.4693 32.6398 54.4693C29.856 54.4693 27.5993 52.2125 27.5993 49.4287ZM50.7602 49.4287C50.7602 48.4121 51.5843 47.5881 52.6008 47.5881C53.6173 47.5881 54.4414 48.4121 54.4414 49.4287C54.4414 50.4452 53.6173 51.2693 52.6008 51.2693C51.5843 51.2693 50.7602 50.4452 50.7602 49.4287ZM52.6008 44.3881C49.817 44.3881 47.5602 46.6448 47.5602 49.4287C47.5602 52.2125 49.817 54.4693 52.6008 54.4693C55.3846 54.4693 57.6413 52.2125 57.6413 49.4287C57.6413 46.6448 55.3846 44.3881 52.6008 44.3881ZM11.8326 47.5881C10.816 47.5881 9.99197 48.4121 9.99197 49.4287C9.99197 50.4452 10.816 51.2693 11.8326 51.2693C12.8491 51.2693 13.6731 50.4452 13.6731 49.4287C13.6731 48.4121 12.8491 47.5881 11.8326 47.5881ZM6.79199 49.4287C6.79199 46.6448 9.04873 44.3881 11.8326 44.3881C14.6164 44.3881 16.8731 46.6448 16.8731 49.4287C16.8731 52.2125 14.6164 54.4693 11.8326 54.4693C9.04873 54.4693 6.79199 52.2125 6.79199 49.4287Z" fill="#0278D5"/>
</svg>
